X: 87
T:L'Etoile
M:3/8
L:1/8
C:Traditional
R:Bourree
Z:Steve Mansfield
K:G
B/A/ |: GBd | g2f | e/g/fe | dBA | GBd | g2f |
e/g/fe |1 d2B/A/ :|2 d2B/c/ |: ded | c2A | B/c/AB |
G/A/Bc | ded | c2A | B/c/AB |1G2d :|2 G2B/A/ ||G3||
<end>
<start>
